X:21130 
T:MERRY HUNTSMAN, The 
B:DMI.0318
Z:Nordberg/Black
R:jig
%Q:1/4=160
M:6/8
L:1/8
K:G % source key F
a|gdB BdB|gdB gba|gdB BdB|ecA A2f|
gdB BdB|gdB fga|bgd afd|ecA A2:|
K:D
e|d2b afd|afd fga|d2b afd|ecA cde|
d2b afd|afd fga|bge afd|1 ecA cd:|\
[2 ecB ABc|d6|]

%%%

